icons/logo-github-16.svg

<svg xmlns="http://www.w3.org/2000/svg" width="45" height="16" viewBox="0 0 45 16"><path d="M10.9059 13.2983V5.74083H13.0306V13.2983H10.9059ZM17.1858 13.2983C15.7738 13.2983 15.2225 12.6932 15.2225 11.4156V7.51589H13.8778V5.74083H15.2225V4.23472L17.3472 3.73716V5.74083H18.9205V7.51589H17.3472V10.945C17.3472 11.3619 17.5355 11.5232 17.9523 11.5232H18.9205V13.2983H17.1858ZM31.8973 13.4328C30.2433 13.4328 29.3423 12.5183 29.3423 10.8509V5.74083H31.4804V10.2861C31.4804 11.2139 31.8973 11.7249 32.6907 11.7249C33.6051 11.7249 34.3044 10.8778 34.3044 9.72127V5.74083H36.4425V13.2983H34.3044V12.0208C33.901 12.8411 32.9328 13.4328 31.8973 13.4328ZM42.0232 13.4328C40.9205 13.4328 39.9792 12.8411 39.6027 11.9939V13.2983H37.478V2.7555H39.6161V7.12592C39.9792 6.21149 40.9609 5.56601 42.0232 5.56601C44.0135 5.56601 45.1027 6.99144 45.1027 9.50611C45.1027 11.9939 43.9731 13.4328 42.0232 13.4328ZM41.2702 11.6443C42.3056 11.6443 42.9108 10.824 42.9108 9.50611C42.9108 8.17482 42.3056 7.35452 41.2702 7.35452C40.3154 7.35452 39.6161 8.21516 39.6161 9.39853V9.51956C39.6161 10.7433 40.3154 11.6443 41.2702 11.6443ZM26.0746 2.7555V7.03178H22.0672V2.7555H19.7812V13.2983H22.0672V9.07579H26.0746V13.2983H28.3606V2.7555H26.0746ZM5.08313 13.5C1.96333 13.5 0 11.3619 0 8.01345C0 4.66504 2.00367 2.55379 5.17726 2.55379C7.75917 2.55379 9.31907 3.65648 9.81663 5.51222L7.50367 6.06357C7.22127 5.05501 6.41443 4.50367 5.17726 4.50367C3.33496 4.50367 2.33985 5.71394 2.33985 8.01345C2.33985 10.313 3.30807 11.5501 5.12347 11.5501C6.79095 11.5501 7.78606 10.5281 7.78606 8.7934V8.38998L8.37775 9.21027H4.93521V7.27384H10.099V8.49755C10.099 11.7115 8.22983 13.5 5.08313 13.5ZM11.9682 5.02812C12.6809 5.02812 13.2323 4.47677 13.2323 3.76406C13.2323 3.05134 12.6809 2.5 11.9682 2.5C11.2555 2.5 10.7042 3.05134 10.7042 3.76406C10.7042 4.47677 11.2555 5.02812 11.9682 5.02812Z"/></svg>

<svg xmlns="http://www.w3.org/2000/svg" width="45" height="16" viewBox="0 0 45 16"><path d="M10.906 13.298V5.741h2.125v7.557h-2.125Zm6.28 0c-1.412 0-1.963-.605-1.963-1.882v-3.9h-1.345V5.741h1.345V4.235l2.124-.498v2.004h1.574v1.775h-1.574v3.429c0 .417.188.578.605.578h.969v1.775h-1.735Zm14.711.135c-1.654 0-2.555-.915-2.555-2.582v-5.11h2.138v4.545c0 .928.417 1.439 1.211 1.439.914 0 1.613-.847 1.613-2.004v-3.98h2.139v7.557h-2.139v-1.277c-.403.82-1.371 1.412-2.407 1.412Zm10.126 0c-1.103 0-2.044-.592-2.42-1.439v1.304h-2.125V2.756h2.138v4.37c.363-.915 1.345-1.56 2.407-1.56 1.991 0 3.08 1.425 3.08 3.94 0 2.488-1.13 3.927-3.08 3.927Zm-.753-1.789c1.036 0 1.641-.82 1.641-2.138 0-1.331-.605-2.151-1.641-2.151-.955 0-1.654.86-1.654 2.044v.121c0 1.223.699 2.124 1.654 2.124ZM26.075 2.756v4.276h-4.008V2.756h-2.286v10.542h2.286V9.076h4.008v4.222h2.286V2.756h-2.286ZM5.083 13.5C1.963 13.5 0 11.362 0 8.013c0-3.348 2.004-5.459 5.177-5.459 2.582 0 4.142 1.102 4.64 2.958l-2.313.552c-.283-1.009-1.09-1.56-2.327-1.56-1.842 0-2.837 1.21-2.837 3.509 0 2.3.968 3.537 2.783 3.537 1.668 0 2.663-1.022 2.663-2.757V8.39l.592.82H4.935V7.274h5.164v1.224c0 3.213-1.869 5.002-5.016 5.002Zm6.885-8.472c.713 0 1.264-.551 1.264-1.264S12.681 2.5 11.968 2.5s-1.264.551-1.264 1.264.551 1.264 1.264 1.264Z"/></svg>
